X: 28501
T: Munster Bank, The
R: polka
M: 2/4
K: Amajor
A>F EF|AB ce|fe cA|BA FE|
A>F EF|AB ce|fe cA|BA A2:|
f>e ce|fe e2|a>f ec|BA FE|
A>F EF|AB ce|fe cA|BA A2:|

